lib/brands/icons/gulp.svg

<svg xmlns="http://www.w3.org/2000/svg" fill="none" aria-hidden="true" viewBox="0 0 48 48"><g id="gulp-Icon"><g id="Group"><g id="Union"><path fill="#D34A47" fill-rule="evenodd" d="M32.9376 5.06265L32.9391 5.06095L32.9464 5.05322L32.9455 5.05249C33.0411 4.91644 32.8714 4.5947 32.5574 4.32261C32.2353 4.04371 31.8831 3.92244 31.7707 4.05181L27.048 9.05193L26.1127 12.856C25.435 12.833 24.7278 12.8208 24.0002 12.8208C19.0263 12.8208 14.9941 13.3877 14.9941 14.0868C14.9941 14.7859 19.0263 15.3527 24.0002 15.3527C28.974 15.3527 33.0061 14.7859 33.0061 14.0868C33.0061 13.572 30.8193 13.1288 27.68 12.9311L28.4856 9.74707L32.9278 5.07275C32.9313 5.06957 32.9345 5.06621 32.9376 5.06265ZM26.5238 14.7556C27.037 14.7534 27.2115 14.7143 27.2115 14.7143L27.2205 14.7131C27.3723 14.6926 27.597 14.6622 27.598 14.4821C27.5982 14.3741 27.5073 14.3116 27.4032 14.2793L27.3258 14.4004C27.3897 14.4156 27.4264 14.435 27.4264 14.4556C27.426 14.5236 26.9406 14.5567 26.5388 14.5617C26.1372 14.5668 25.612 14.5195 25.6123 14.4505C25.6124 14.4358 25.6317 14.422 25.6655 14.4103L25.5878 14.2884C25.5056 14.3219 25.4411 14.3755 25.4407 14.4663C25.4405 14.5141 25.4618 14.5846 25.5009 14.6201C25.646 14.7523 26.0105 14.7578 26.5238 14.7556Z" clip-rule="evenodd"/><path fill="#D34A47" d="M28.8907 42.7941L29.2745 36.3992L30.3341 34.5903C30.3341 34.5903 27.9223 35.577 23.8845 35.577C19.8466 35.577 17.4713 34.6086 17.4713 34.6086L18.6589 36.5818L19.079 42.7941C19.079 43.4601 21.2754 44 23.9849 44C26.6942 44 28.8907 43.4601 28.8907 42.7941Z"/><path fill="#D34A47" d="M29.8741 25.3414C29.345 25.8688 28.616 26.5954 28.6761 27.1743C28.8077 28.4395 30.862 27.3171 31.5111 26.685L30.7177 33.8172C30.7177 33.8172 28.9567 35.138 23.8413 35.138C18.7259 35.138 17.0278 33.7963 17.0278 33.7963L16.3889 27.6385C17.4645 28.166 18.3346 27.3003 18.8852 26.7526C18.9643 26.6739 19.0367 26.6018 19.1023 26.5413C19.1129 26.6473 19.0255 26.9145 18.9211 27.2336C18.7028 27.9014 18.4101 28.7961 18.7858 28.915C19.2141 29.0506 19.4506 28.1722 19.7396 27.0986C19.8253 26.7804 19.9156 26.445 20.0169 26.1138C20.0827 25.8985 20.154 25.6784 20.2246 25.4606C20.577 24.373 20.9119 23.3395 20.4586 23.2159C20.0775 23.1119 19.8809 23.7751 19.7118 24.3456C19.6396 24.5893 19.5724 24.816 19.498 24.9588C19.1448 25.6364 17.0576 27.9185 16.8078 26.2249C16.6117 24.8965 18.0958 22.232 18.7858 21.5566C19.1319 21.2179 19.6672 20.9053 20.0518 21.0027C20.3174 21.07 20.462 21.3321 20.596 21.575C20.7307 21.8194 20.8547 22.0442 21.0804 22.0313C22.1437 21.9707 20.9024 20.1804 19.9727 20.1324C17.9287 20.027 16.632 23.1663 16.0859 24.7183L15.0571 14.8022C15.0571 14.8022 16.1473 15.7875 23.8833 15.7875C31.6192 15.7875 32.8351 14.7812 32.8351 14.7812L31.6267 25.6451C31.1877 26.2372 30.1595 26.8884 29.5249 26.9709C29.2814 27.0026 29.4942 26.7903 29.8332 26.4519C30.4007 25.8856 31.322 24.9661 31.0498 24.2467C30.6826 23.2762 29.1618 24.2561 28.7552 24.7215C28.8554 24.4297 28.9248 24.0467 28.5115 24.0212C28.3011 24.0083 28.2052 24.3119 28.08 24.7088C27.9593 25.0911 27.8112 25.56 27.5071 25.9159C26.9823 26.53 26.6656 26.6336 26.1966 26.787C26.1117 26.8148 26.0218 26.8442 25.9247 26.8786C25.3474 27.0831 26.413 24.6373 27.1938 22.8453C27.2691 22.6724 27.3418 22.5056 27.4101 22.3478C27.5755 21.9658 27.9555 20.941 27.4945 20.789C27.1467 20.6743 26.7204 21.7818 26.2435 23.0209C26.088 23.4248 25.9272 23.8426 25.7619 24.2367C25.3777 25.1531 25.2357 25.7035 25.1469 26.0477C25.0804 26.3057 25.0437 26.4479 24.9573 26.5413C24.6456 26.8786 24.1332 27.0315 24.0079 26.9369C23.6684 26.6806 24.011 25.8583 24.3137 25.1319C24.5645 24.5298 24.7879 23.9937 24.5725 23.9006C24.2289 23.7521 23.8256 24.6456 23.5503 25.2556C23.4447 25.4896 23.3579 25.6818 23.3005 25.7577L23.2991 25.7595C23.2488 25.8263 22.1642 27.2658 21.7625 26.9603C21.5251 26.7798 21.8804 25.8978 22.1881 25.1962C22.2123 25.1409 22.2485 25.0705 22.2893 24.991C22.4838 24.6119 22.7849 24.025 22.4176 23.8748C21.9733 23.693 20.1864 27.2967 21.3178 27.7282C22.1792 28.0568 22.8969 27.266 23.2167 26.6995C23.0718 28.0405 24.3562 27.7639 24.9573 27.2534C25.3164 28.2672 26.6685 27.2678 27.1256 26.9301C27.1445 26.9161 27.1618 26.9033 27.1775 26.8918C27.0604 27.2838 26.8405 27.7674 26.6229 28.2458C26.2038 29.1675 25.7935 30.0698 26.1441 30.2601C26.597 30.5059 27.2519 28.8453 27.5839 28.0033C27.6425 27.8547 27.691 27.7317 27.7266 27.649C28.3744 26.1457 29.0153 24.7104 30.3029 24.6368C30.5606 24.6571 30.2746 24.9422 29.8741 25.3414Z"/></g></g></g></svg>

<svg xmlns="http://www.w3.org/2000/svg" fill="none" aria-hidden="true" viewBox="0 0 48 48"><g fill="#D34A47"><path fill-rule="evenodd" d="m32.938 5.063.001-.002.007-.008c.095-.137-.075-.458-.389-.73-.322-.28-.674-.4-.786-.271l-4.723 5-.935 3.804A62.43 62.43 0 0 0 24 12.821c-4.974 0-9.006.567-9.006 1.266 0 .699 4.032 1.266 9.006 1.266s9.006-.567 9.006-1.266c0-.515-2.187-.958-5.326-1.156l.806-3.184 4.442-4.674a.12.12 0 0 0 .01-.01Zm-6.414 9.693c.513-.003.688-.042.688-.042h.009c.151-.021.376-.052.377-.232 0-.108-.09-.17-.195-.203l-.077.121c.064.016.1.035.1.056 0 .068-.485.1-.887.106-.402.005-.927-.042-.927-.111 0-.015.02-.029.054-.04l-.078-.123c-.082.034-.147.088-.147.178 0 .048.02.119.06.154.145.132.51.138 1.023.136Z" clip-rule="evenodd"/><path d="m28.89 42.794.384-6.395 1.06-1.809s-2.412.987-6.45.987c-4.037 0-6.413-.968-6.413-.968l1.188 1.973.42 6.212c0 .666 2.196 1.206 4.906 1.206 2.71 0 4.906-.54 4.906-1.206Z"/><path d="M29.874 25.341c-.529.528-1.258 1.254-1.198 1.833.132 1.265 2.186.143 2.835-.489l-.793 7.132s-1.761 1.321-6.877 1.321c-5.115 0-6.813-1.342-6.813-1.342l-.64-6.157c1.076.527 1.947-.339 2.497-.886.08-.08.152-.151.217-.212.01.106-.076.373-.18.693-.22.667-.512 1.562-.136 1.681.428.136.665-.743.954-1.816.085-.319.176-.654.277-.985.066-.216.137-.436.208-.653.352-1.088.687-2.121.234-2.245-.381-.104-.578.56-.747 1.13-.072.243-.14.47-.214.613-.353.677-2.44 2.96-2.69 1.266-.196-1.329 1.288-3.993 1.978-4.668.346-.34.881-.652 1.266-.554.265.067.41.33.544.572.135.244.259.47.484.456 1.064-.06-.178-1.85-1.107-1.899-2.044-.105-3.341 3.034-3.887 4.586l-1.029-9.916s1.09.986 8.826.986c7.736 0 8.952-1.007 8.952-1.007l-1.208 10.864c-.44.592-1.467 1.243-2.102 1.326-.244.032-.03-.18.308-.52.568-.565 1.489-1.485 1.217-2.204-.367-.97-1.888.01-2.295.474.1-.291.17-.674-.243-.7-.21-.013-.307.29-.432.688-.12.382-.269.851-.573 1.207-.525.614-.841.718-1.31.871-.085.028-.175.057-.272.092-.578.204.488-2.242 1.269-4.034l.216-.497c.166-.382.546-1.407.084-1.559-.347-.115-.774.993-1.25 2.232-.156.404-.317.822-.482 1.216a11.965 11.965 0 0 0-.615 1.81c-.067.259-.103.4-.19.494-.311.338-.824.49-.95.396-.339-.256.004-1.079.307-1.805.25-.602.474-1.138.259-1.231-.344-.149-.747.745-1.023 1.355-.105.234-.192.426-.25.502v.002c-.051.066-1.136 1.506-1.538 1.2-.237-.18.118-1.062.426-1.764.024-.055.06-.126.101-.205.195-.38.496-.966.129-1.116-.445-.182-2.232 3.422-1.1 3.853.861.329 1.579-.462 1.899-1.029-.145 1.341 1.14 1.065 1.74.554.36 1.014 1.712.015 2.169-.323l.051-.038c-.117.392-.337.875-.554 1.354-.42.922-.83 1.824-.479 2.014.453.246 1.108-1.415 1.44-2.257.058-.148.107-.271.143-.354.647-1.503 1.288-2.939 2.576-3.012.258.02-.028.305-.429.704Z"/></g></svg>
